X: 41
T: JIG: Lilting Fisherman
C: C: Trad.; S: Various
C: Set Leaders: Mars, Tania
Z: [Unedited]; Jeremy at The Session
N: https://thesession.org/members/26966/sets/94271
R: Jig
M: 6/8
L: 1/8
Q: 3/8=116
K: Gmaj
Bc|:dBG GBd|~g3 ege|dBG GFG|AFD cBA|
dBG GBd|~g3 ege|dBG FGA|BGF G2B:||
K: Dmaj
|:ABA AFA|~f3 f2e|dce dcB|AFF F2G|
AFA A2d|BGB B2d|cBc ABc|1 dfe dcB:|2 dfe dB=c||

